X:313
T: BLUEHE LIEBES VEILCHEN DAS ICH SELBST ERZOG
N: B0371
O: Europa, Mitteleuropa, Deutschland
R: Liebes - Lied, Liebes - Lust
M: 2/4
L: 1/16
K: G
 | d3cB2B2 | c4A4 |
B2G2A2F2 | G4z4 |
A3Bc2B2 | B4A4 |
B2B2^c2c2 | d4z4 |
A3GF2A2 | c4A4 |
B3AG2B2 | d4B4 |
d3cB2B2 | c4z4 |
B2G2A2F2 | G4z4

@@@ Tune index: 2116
